X: 278
T: Ducks on the Millpond
B: canberra pickers and fiddlers
B: tunes
M:C|
L:1/8
R: reel
Q: 1/4=100
K:D
V:1 
"D"[D2d2]e2f2e2|(def)d e[D(d]BA)|d2g2 ((3fgf e)(d|"A"BA)Bd e(dBA)|
"D"[D2d2]""e2f2e2|(def)d e[D(d]BA)|d2g2 ((3fgf e)(d|"A"BA)Bd "D"ed-d2||
"D"{g}a3 ([Aa]a2) (ef|a)eff e[D(d]d2)|a3 (b af)ed|("A"BAB)d e(dd2)|
{g}"D"a3 ([Aa]a2) (ef|a)eff e[D(d]d2)|a3 (b af)ed|("A"BAB)d "D"e(dBA)||
% abcbook-tune_id 63da593450b9fd41a8ce9055
% abcbook-tune_composer_id 
% abcbook-link-0 https://www.youtube.com/watch?v=wIMjq833WQ0
% abcbook-boost 0
% abcbook-difficulty 0
% abcbook-tags canberra pickers and fiddlers,old time tunes,steve ryan,© free
% abcbook-tablature 
% abcbook-transpose 
% abcbook-tuning ADAE
% abcbook-lastupdated 1675314447117
% abcbook-src-url https://tunebook.net/scrape/tunes.abc
% abcbook-soundfonts 
% abcbook-repeats 1
%%gchordfont "itim-music,Itim" 20

